svg/color/eos.svg

<svg width="64" height="65" viewBox="0 0 64 65" fill="none" xmlns="http://www.w3.org/2000/svg">
<rect y="0.303711" width="64" height="64" rx="32" fill="#244EDB"/>
<rect x="0.5" y="0.803711" width="63" height="63" rx="31.5" stroke="#070B14" stroke-opacity="0.15"/>
<path d="M31.9437 11.3118L22.0595 24.913L17.92 45.0193L31.9437 53.5518L45.9673 45.0193L41.7433 24.8286L31.9437 11.3118ZM20.2009 44.09L23.3267 28.7991L30.423 50.3415L20.2009 44.09ZM24.3405 25.3354L31.9437 14.8599L39.5469 25.3354L31.9437 48.314L24.3405 25.3354ZM33.3798 50.3415L40.4761 28.7991L43.6019 44.09L33.3798 50.3415Z" fill="white"/>
</svg>

<svg xmlns="http://www.w3.org/2000/svg" width="64" height="65" fill="none" viewBox="0 0 64 65"><rect width="64" height="64" y=".304" fill="#244EDB" rx="32"/><rect width="63" height="63" x=".5" y=".804" stroke="#070B14" stroke-opacity=".15" rx="31.5"/><path fill="#fff" d="M31.944 11.312 22.06 24.913l-4.14 20.106 14.024 8.533 14.023-8.533-4.224-20.19zM20.2 44.09l3.126-15.29 7.096 21.542zm4.14-18.755 7.603-10.475 7.603 10.475-7.603 22.979zm9.039 25.007 7.096-21.543 3.126 15.291z"/></svg>
